dist/svgs/devui-icons/op/run-with-parameter.svg

<svg xmlns="http://www.w3.org/2000/svg" viewBox="0 0 16 16"><path fill-rule="evenodd" d="M15 12l-5 3V9l5 3zm0-4h-2V6H3v6h5v2H2a1 1 0 01-1-1V3a1 1 0 011-1h12a1 1 0 011 1v5zM3 4v1h3V4H3zm7 0v1h1V4h-1zm2 0v1h1V4h-1zM4 7h8v1H4V7zm0 2h5v1H4V9z"/></svg>

<?xml version="1.0" encoding="UTF-8"?>
<svg width="16px" height="16px" viewBox="0 0 16 16" version="1.1" xmlns="http://www.w3.org/2000/svg" xmlns:xlink="http://www.w3.org/1999/xlink">
    <title>操作/带参数执行</title>
    <desc>Created with Sketch.</desc>
    <g id="操作/带参数执行" stroke="none" stroke-width="1" fill="none" fill-rule="evenodd">
        <path d="M15,12 L10,15 L10,9 L15,12 Z M15,8 L13,8 L13,6 L3,6 L3,12 L8,12 L8,14 L2,14 C1.44771525,14 1,13.5522847 1,13 L1,3 C1,2.44771525 1.44771525,2 2,2 L14,2 C14.5522847,2 15,2.44771525 15,3 L15,8 Z M3,4 L3,5 L6,5 L6,4 L3,4 Z M10,4 L10,5 L11,5 L11,4 L10,4 Z M12,4 L12,5 L13,5 L13,4 L12,4 Z M4,7 L12,7 L12,8 L4,8 L4,7 Z M4,9 L9,9 L9,10 L4,10 L4,9 Z" id="形状" fill="#293040"></path>
    </g>
</svg>
